X: 9581
T: David's
R: jig
M: 6/8
K: Gdorian
|:G2 D GAB|AFD G2 B|AFF dFF|cBA Acf|
G2 D GAB|AFD G2 g|gfd cdf|cdf [1 cAF:|2 cdf||
|:e2 d gab|gfd e2 a|fcc acc|gcc fga|
[1 g2 d gab|afd g2 a|fgf cdf|cAF G3:|
[2 gag gfc|dff fcA|Bdd dBG|Acc cAF|

